X:41
T:Red and all Red
M:2/4
L:1/8
B:Thompson's Compleat Collection of 200 Favourite Country Dances, vol. 1 (London, 1757)
Z:Transcribed and edited by Fynnian Titford-Mock, 2007
Z:abc's:AK/Fiddler's Companion
K:G
GA|BABd|G2 GA|BABc|{B}A2 AA|BBdd|fed ^c|d2 dd|d2::BB|cBcd|e2 dc|
cBAG|d2 ef|gfed|cBAG|d2 de|c2 cd|B2 Bc|A2 df|gedc|B2 cA|G2 GG|G2:|

